modules/hawcons-filled/icons/note-checked.svg

<?xml version="1.0" encoding="UTF-8" standalone="no"?>
<svg width="32px" height="32px" viewBox="0 0 32 32" version="1.1" xmlns="http://www.w3.org/2000/svg" xmlns:xlink="http://www.w3.org/1999/xlink" xmlns:sketch="http://www.bohemiancoding.com/sketch/ns">
    <!-- Generator: Sketch 3.0.3 (7891) - http://www.bohemiancoding.com/sketch -->
    <title>icon 46 note checked</title>
    <desc>Created with Sketch.</desc>
    <defs></defs>
    <g id="Page-1" stroke="none" stroke-width="1" fill="none" fill-rule="evenodd" sketch:type="MSPage">
        <g id="icon-46-note-checked" sketch:type="MSArtboardGroup" fill="#929292">
            <path d="M5,11 L5,25.9991358 C5,27.0983727 5.8927712,28 6.99406028,28 L21,28 L21,21.9981014 C21,20.8867064 21.8980806,20 23.0059191,20 L28,20 L28,11 L5,11 L5,11 Z M5,10 L5,7.00086422 C5,5.89581743 5.90162726,5 7.00086422,5 L25.9991358,5 C27.1041826,5 28,5.89339733 28,6.99188419 L28,10 L5,10 L5,10 Z M22,28 L22,22.0029293 C22,21.4490268 22.4509752,21 22.990778,21 L28,21 L22,28 L22,28 Z M14.3535534,22.5852818 L22.131728,14.8071072 L21.4246212,14.1000004 L14.3535534,21.1710682 L10.6109127,17.4284275 L9.90380592,18.1355343 L14.3535534,22.5852818 L14.3535534,22.5852818 Z" id="note-checked" sketch:type="MSShapeGroup"></path>
        </g>
    </g>
</svg>

<svg width="32" height="32" viewBox="0 0 32 32" xmlns="http://www.w3.org/2000/svg"><path d="M5 11v15c0 1.098.893 2 1.994 2H21v-6.002c0-1.111.898-1.998 2.006-1.998H28v-9H5zm0-1V7c0-1.104.902-2 2-2h19c1.104 0 2 .893 2 1.992V10H5zm17 18v-5.997c0-.554.451-1.003.99-1.003H28l-6 7zm-7.646-5.415l7.778-7.778-.707-.707-7.071 7.071-3.743-3.743-.707.708 4.45 4.45z" fill="#929292" fill-rule="evenodd"/></svg>
